src/objects/other-object/1F6AC.svg

<svg id="emoji" viewBox="0 0 72 72" xmlns="http://www.w3.org/2000/svg">
  <g id="grid">
    <path fill="#b3b3b3" d="M68,4V68H4V4H68m4-4H0V72H72V0Z"/>
    <path fill="none" stroke="#00a5ff" stroke-miterlimit="10" stroke-width="0.1" d="M12.923,10.9583H59.0769A1.9231,1.9231,0,0,1,61,12.8814V59.0352a1.9231,1.9231,0,0,1-1.9231,1.9231H12.9231A1.9231,1.9231,0,0,1,11,59.0352V12.8813A1.923,1.923,0,0,1,12.923,10.9583Z"/>
    <rect x="16" y="4" rx="2.2537" width="40" height="64" fill="none" stroke="#00a5ff" stroke-miterlimit="10" stroke-width="0.1"/>
    <rect x="16" y="4" rx="2.2537" width="40" height="64" transform="translate(72) rotate(90)" fill="none" stroke="#00a5ff" stroke-miterlimit="10" stroke-width="0.1"/>
    <circle cx="36" cy="36" r="29" fill="none" stroke="#00a5ff" stroke-miterlimit="10" stroke-width="0.1"/>
  </g>
  <g id="color">
    <path fill="#FFFFFF" stroke="none" stroke-linecap="round" stroke-linejoin="round" stroke-miterlimit="10" stroke-width="2" d="M66.9875,42.1803H5.0124C4.4556,42.1803,4,41.7247,4,41.1678v-7.6418c0-0.5568,0.4556-1.0124,1.0124-1.0124h61.9751 c0.5568,0,1.0125,0.4556,1.0125,1.0124v7.6418C68,41.7247,67.5444,42.1803,66.9875,42.1803z"/>
    <path fill="#f4aa41" stroke="none" stroke-linecap="round" stroke-linejoin="round" stroke-miterlimit="10" stroke-width="2" d="M67,42.1803H50.125c-0.55,0-1-0.45-1-1v-7.6667c0-0.55,0.45-1,1-1H67c0.55,0,1,0.45,1,1v7.6667 C68,41.7303,67.55,42.1803,67,42.1803z"/>
    <path fill="#9b9b9a" stroke="none" stroke-linecap="round" stroke-linejoin="round" stroke-miterlimit="10" stroke-width="2" d="M10.0068,42.1803H4.9932C4.4469,42.1803,4,41.7333,4,41.1871v-7.6803c0-0.5463,0.4469-0.9932,0.9932-0.9932h5.0136 c0.5463,0,0.9932,0.4469,0.9932,0.9932v7.6803C11,41.7333,10.5531,42.1803,10.0068,42.1803z"/>
  </g>
  <g id="hair"/>
  <g id="skin"/>
  <g id="skin-shadow"/>
  <g id="line">
    <path fill="none" stroke="#000000" stroke-linecap="round" stroke-linejoin="round" stroke-miterlimit="10" stroke-width="2" d="M66.9875,42.1803H5.0124C4.4556,42.1803,4,41.7247,4,41.1678v-7.6418c0-0.5568,0.4556-1.0124,1.0124-1.0124h61.9751 c0.5568,0,1.0125,0.4556,1.0125,1.0124v7.6418C68,41.7247,67.5444,42.1803,66.9875,42.1803z"/>
    <path fill="none" stroke="#000000" stroke-linecap="round" stroke-linejoin="round" stroke-miterlimit="10" stroke-width="2" d="M67,42.1803H50.125c-0.55,0-1-0.45-1-1v-7.6667c0-0.55,0.45-1,1-1H67c0.55,0,1,0.45,1,1v7.6667 C68,41.7303,67.55,42.1803,67,42.1803z"/>
    <path fill="none" stroke="#000000" stroke-linecap="round" stroke-linejoin="round" stroke-miterlimit="10" stroke-width="2" d="M10.0068,42.1803H4.9932C4.4469,42.1803,4,41.7333,4,41.1871v-7.6803c0-0.5463,0.4469-0.9932,0.9932-0.9932h5.0136 c0.5463,0,0.9932,0.4469,0.9932,0.9932v7.6803C11,41.7333,10.5531,42.1803,10.0068,42.1803z"/>
  </g>
</svg>

<svg viewBox="0 0 72 72" xmlns="http://www.w3.org/2000/svg"><path fill="#b3b3b3" d="M68 4v64H4V4h64m4-4H0v72h72V0z"/><path fill="none" stroke="#00a5ff" stroke-miterlimit="10" stroke-width=".1" d="M12.923 10.958h46.154A1.923 1.923 0 0161 12.881v46.154a1.923 1.923 0 01-1.923 1.923H12.923A1.923 1.923 0 0111 59.035V12.881a1.923 1.923 0 011.923-1.923z"/><rect x="16" y="4" rx="2.254" width="40" height="64" fill="none" stroke="#00a5ff" stroke-miterlimit="10" stroke-width=".1"/><rect x="16" y="4" rx="2.254" width="40" height="64" transform="rotate(90 36 36)" fill="none" stroke="#00a5ff" stroke-miterlimit="10" stroke-width=".1"/><circle cx="36" cy="36" r="29" fill="none" stroke="#00a5ff" stroke-miterlimit="10" stroke-width=".1"/><g stroke-linecap="round" stroke-miterlimit="10" stroke-width="6" stroke="#fff" fill="none" stroke-linejoin="round"><path d="M66.987 42.18H5.012A1.015 1.015 0 014 41.168v-7.642c0-.557.456-1.012 1.012-1.012h61.975c.557 0 1.013.455 1.013 1.012v7.642c0 .557-.456 1.012-1.013 1.012z"/><path d="M67 42.18H50.125c-.55 0-1-.45-1-1v-7.666c0-.55.45-1 1-1H67c.55 0 1 .45 1 1v7.666c0 .55-.45 1-1 1zm-56.993 0H4.993A.996.996 0 014 41.187v-7.68c0-.546.447-.993.993-.993h5.014c.546 0 .993.446.993.993v7.68a.996.996 0 01-.993.993z"/></g><path fill="#FFF" d="M66.987 42.18H5.012A1.015 1.015 0 014 41.168v-7.642c0-.557.456-1.012 1.012-1.012h61.975c.557 0 1.013.455 1.013 1.012v7.642c0 .557-.456 1.012-1.013 1.012z"/><path fill="#f4aa41" d="M67 42.18H50.125c-.55 0-1-.45-1-1v-7.666c0-.55.45-1 1-1H67c.55 0 1 .45 1 1v7.666c0 .55-.45 1-1 1z"/><path fill="#9b9b9a" d="M10.007 42.18H4.993A.996.996 0 014 41.187v-7.68c0-.546.447-.993.993-.993h5.014c.546 0 .993.446.993.993v7.68a.996.996 0 01-.993.993z"/><g fill="none" stroke="#000" stroke-linecap="round" stroke-linejoin="round" stroke-miterlimit="10" stroke-width="2"><path d="M66.987 42.18H5.012A1.015 1.015 0 014 41.168v-7.642c0-.557.456-1.012 1.012-1.012h61.975c.557 0 1.013.455 1.013 1.012v7.642c0 .557-.456 1.012-1.013 1.012z"/><path d="M67 42.18H50.125c-.55 0-1-.45-1-1v-7.666c0-.55.45-1 1-1H67c.55 0 1 .45 1 1v7.666c0 .55-.45 1-1 1zm-56.993 0H4.993A.996.996 0 014 41.187v-7.68c0-.546.447-.993.993-.993h5.014c.546 0 .993.446.993.993v7.68a.996.996 0 01-.993.993z"/></g></svg>
